X: 16094
T: Green Fields Of Woodford, The
R: jig
M: 6/8
K: Gmajor
dBA ~G3|EDE ~G3|edB dBA|Bee ege|
dBA ~G3|EDE GAB|AGE ~A2B|GED DBc|
dBA ~G3|EDE GBd|edg dBA|Bee ege|
dBA ~G2E|EDE GAB|AGE ~A2B|GED DGA||
BGG dGG|edB dBA|BGG dGg|edB ~A3|
BGG dGG|edB dBA|~G2B AGE|GED DGA|
BGG dGG|edg dBA|BGG dGg|edB ~A3|
BAB deg|bge dBA|GAB AGE|GED DBc||

